X: 1
T: Stefan and Liz's Waltz  (G)
C: Robin Bullock
R: waltz
Z: 2011 John Chambers <jc:trillian.mit.edu>
M: 3/4
L: 1/8
K: G
zdc |\
"G"B2 Bc dB | "D/F#"A3 B/c/ BA | "Em"GF GA BD | "C"E3 G GE |\
"G"D2 G2 B2 | "Em"d2 c2 B2 | "C"B4- Bc/B/ | "D"A4 dc |
"G"B2 Bc dB | "D/F#"A3 B/c/ BA | "Em"GF GA BD | "C"E3 G GE |\
"G/B"D2 G2 B2 | "Am"d2 c2 B2 | "Dsus"Bc/B/ A3 G | "G"G3 :|
|: D GF |\
"C"E2 EF G2 | "D"A3 B/A/ GA | "G"B2 G2 D2 | "Am"E3 G GF |\
"Em"E2 D2 B,2 | "F"A,4- A,G, | "C"G,4- G,B, | "D"A,B, DF GA |
"G"B2 G2 D2 | "Am"E3 F GB | "C"c3 B AG | "D"A4 dc |\
"G"B2 Bc dD | "C"E2 EF GB | "Dsus"Bc/B/ A3 G | "G"G2 z :|["Coda" zdc | "G"HG6 |]
